T: Peach Blossoms
M: 4/4
L: 1/8
K: Dmaj
FAfA FAfA|B2 g2 g2 ed |ceae cea^g |b2 a2 a2 AG|!FAfA FAfA|B2 g2 g2 ed |ceba ^ga=ge |1 d2 (3edc .dz AG :|2 d2 (3edc .dz (3dcB ||!A2 A2 Bcde |fdAF A3 B |cAGE c3 a |bafd A2 (3^GAB |A2 A2 Bcde |!fdAF A3 c |dcBc dgfe |1(3ded (3cde .dz (3dcB:|2 (3ded (3cde ded=c||!BDGB dgbg |a2 e2 e2 ag |f2 =c2 c2 fe| d2 B2 B2 d=c|!BDGB dgbg| a2 e2 e2 ag |fd=cA dcAF|1G2 B2 G2 d=c :|2 .Gz3 ABAG||!
